public/images/hashed/2cc0644370df4830cf05955773ac71f5.svg

<?xml version="1.0" encoding="UTF-8"?>
<svg width="80px" height="80px" viewBox="0 0 80 80" version="1.1" xmlns="http://www.w3.org/2000/svg" xmlns:xlink="http://www.w3.org/1999/xlink">
    <!-- Generator: Sketch 64 (93537) - https://sketch.com -->
    <title>Icon-Architecture/64/Arch_Amazon-Cognito_64</title>
    <desc>Created with Sketch.</desc>
    <defs>
        <linearGradient x1="0%" y1="100%" x2="100%" y2="0%" id="linearGradient-1">
            <stop stop-color="#BD0816" offset="0%"></stop>
            <stop stop-color="#FF5252" offset="100%"></stop>
        </linearGradient>
    </defs>
    <g id="Icon-Architecture/64/Arch_Amazon-Cognito_64" stroke="none" stroke-width="1" fill="none" fill-rule="evenodd">
        <g id="Icon-Architecture-BG/64/Security-Identity-Compliance" fill="url(#linearGradient-1)">
            <rect id="Rectangle" x="0" y="0" width="80" height="80"></rect>
        </g>
        <path d="M16.9635609,35.8079225 L29.8688192,35.8079225 L29.8688192,33.8253841 L16.9635609,33.8253841 L16.9635609,35.8079225 Z M61.3755183,50.2308895 L62.7792133,51.6325441 L55.4073327,58.9937093 C55.2127611,59.1870067 54.9586268,59.2841511 54.7054852,59.2841511 C54.4513509,59.2841511 54.1972166,59.1870067 54.0036377,58.9937093 L50.294865,55.2913188 L51.69856,53.8896641 L54.7054852,56.8912273 L61.3755183,50.2308895 Z M65.9439798,55.6937741 C65.7176414,57.5573602 64.9592093,59.29109 63.7471077,60.708605 C62.8864262,61.7157345 61.7994064,62.5484006 60.604181,63.1154066 C59.0009508,63.8757101 57.2200251,64.1641694 55.4460485,63.9480727 C53.7207147,63.7379237 52.0946522,63.057913 50.7396,61.9823859 C48.1367087,59.9155896 46.8223578,56.7108163 47.2224208,53.4088985 C47.6006441,50.2883831 49.4917608,47.5663578 52.2802893,46.127035 C53.6164799,45.4381029 55.0797377,45.0842198 56.5697987,45.0842198 C56.9519928,45.0842198 57.3371652,45.1080102 57.7213448,45.1545999 C60.8344902,45.534256 63.549558,47.4365016 64.9810489,50.2427847 C65.839745,51.9259598 66.1723036,53.8113538 65.9439798,55.6937741 L65.9439798,55.6937741 Z M66.750062,49.3437035 C65.0177793,45.9476152 61.731902,43.6458881 57.9615811,43.1869305 C55.6813213,42.9083838 53.4030468,43.3167868 51.3689796,44.3655496 C47.9957436,46.1062183 45.7085347,49.3982233 45.2508944,53.1709939 C44.7684363,57.1608525 46.3577685,61.0357238 49.5046661,63.5347135 C51.1456193,64.8372412 53.1171457,65.6609859 55.2048194,65.9157421 C55.6674233,65.9722445 56.1300272,66 56.5916383,66 C58.2713073,66 59.9301294,65.6292653 61.455928,64.9056388 C62.9023096,64.2196805 64.2176533,63.212551 65.2570229,61.9952724 C66.7232588,60.2803767 67.6425103,58.1838423 67.9155061,55.9316787 C68.1914801,53.6567158 67.788439,51.3787792 66.750062,49.3437035 L66.750062,49.3437035 Z M26.8906827,41.7555378 L30.8615314,41.7555378 L30.8615314,39.7729994 L26.8906827,39.7729994 L26.8906827,41.7555378 Z M16.9635609,41.7555378 L24.9052583,41.7555378 L24.9052583,39.7729994 L16.9635609,39.7729994 L16.9635609,41.7555378 Z M16.1058576,15.9825384 L60.5078879,15.9825384 C61.6773028,15.9825384 62.6283211,17.1393496 62.6283211,18.5608296 L62.6283211,25.8952305 L59.6501845,25.8952305 L59.6501845,20.9388844 C59.6501845,20.3917038 59.2064422,19.9476152 58.6574724,19.9476152 L35.8250923,19.9476152 C35.2761224,19.9476152 34.8323801,20.3917038 34.8323801,20.9388844 L34.8323801,25.8952305 L13.9854244,25.8952305 L13.9854244,18.5608296 C13.9854244,17.16314 14.9572896,15.9825384 16.1058576,15.9825384 L16.1058576,15.9825384 Z M47.256173,25.6077624 C49.5612507,25.6077624 51.436484,27.4614358 51.436484,29.7393725 C51.436484,31.2411453 50.6075693,32.6229746 49.2733642,33.3466011 C48.0066634,34.0335507 46.4798721,34.0246292 45.2300474,33.3475924 C43.9008058,32.6219833 43.075862,31.240154 43.075862,29.7393725 C43.075862,27.4614358 44.9501026,25.6077624 47.256173,25.6077624 L47.256173,25.6077624 Z M13.9854244,47.1083915 L13.9854244,27.8777689 L34.8323801,27.8777689 L34.8323801,44.7293454 C34.8323801,45.2775173 35.2761224,45.7206146 35.8250923,45.7206146 L46.2029054,45.7206146 L46.2029054,43.7380762 L37.9117733,43.7380762 C37.9981392,39.7710168 40.6357755,36.3441992 44.4338923,35.249838 C46.1890074,36.0696176 48.2846228,36.0775478 50.0665412,35.2488467 C52.2286683,35.8733463 54.1207777,37.3176255 55.2931708,39.2535743 L56.9917013,38.2266194 C55.7885342,36.2430897 53.9629365,34.6947272 51.8454814,33.7946548 C52.8381936,32.694346 53.4219083,31.2629532 53.4219083,29.7393725 C53.4219083,26.3680659 50.6552195,23.625224 47.256173,23.625224 C43.8561338,23.625224 41.0904377,26.3680659 41.0904377,29.7393725 C41.0904377,31.2570056 41.6681962,32.683442 42.6539593,33.7837508 C40.0004397,34.8999199 37.9276567,36.9924892 36.8178045,39.572763 L36.8178045,21.9301536 L57.6647602,21.9301536 L57.6647602,37.7904609 L59.6501845,37.7904609 L59.6501845,27.8777689 L62.6283211,27.8777689 L62.6293138,42.746807 L64.6147382,42.746807 L64.6137454,18.5608296 C64.6137454,16.0459796 62.7722643,14 60.5078879,14 L16.1058576,14 C13.8414811,14 12,16.0459796 12,18.5608296 L12,47.1083915 C12,49.6232415 13.8414811,51.6682298 16.1058576,51.6682298 L42.7740775,51.6682298 L42.7740775,49.6856914 L16.1058576,49.6856914 C14.9572896,49.6856914 13.9854244,48.5060811 13.9854244,47.1083915 L13.9854244,47.1083915 Z" id="Amazon-Cognito_Icon_64_Squid" fill="#FFFFFF"></path>
    </g>
</svg>

<svg xmlns="http://www.w3.org/2000/svg" width="80" height="80"><defs><linearGradient id="a" x1="0%" x2="100%" y1="100%" y2="0%"><stop offset="0%" stop-color="#BD0816"/><stop offset="100%" stop-color="#FF5252"/></linearGradient></defs><g fill="none" fill-rule="evenodd"><path fill="url(#a)" d="M0 0h80v80H0z"/><path fill="#FFF" d="M16.964 35.808h12.905v-1.983H16.964v1.983ZM61.376 50.23l1.403 1.402-7.372 7.36a.994.994 0 0 1-1.403 0l-3.71-3.702L51.7 53.89l3.006 3.001 6.67-6.66Zm4.568 5.463a9.438 9.438 0 0 1-2.197 5.015 9.552 9.552 0 0 1-3.143 2.406 9.367 9.367 0 0 1-5.158.833 9.39 9.39 0 0 1-4.706-1.966 9.425 9.425 0 0 1-3.518-8.573 9.467 9.467 0 0 1 5.058-7.282 9.336 9.336 0 0 1 5.441-.972 9.427 9.427 0 0 1 7.26 5.088 9.45 9.45 0 0 1 .963 5.45Zm.806-6.35a11.406 11.406 0 0 0-15.381-4.978 11.45 11.45 0 0 0-6.118 8.805 11.398 11.398 0 0 0 4.254 10.364A11.382 11.382 0 0 0 56.592 66c1.68 0 3.338-.37 4.864-1.094a11.54 11.54 0 0 0 3.801-2.91 11.412 11.412 0 0 0 2.659-6.064 11.418 11.418 0 0 0-1.166-6.588Zm-39.86-7.588h3.972v-1.983H26.89v1.983Zm-9.926 0h7.941v-1.983h-7.941v1.983Zm-.858-25.773h44.402c1.17 0 2.12 1.156 2.12 2.578v7.334H59.65V20.94a.992.992 0 0 0-.993-.991H35.825a.992.992 0 0 0-.993.99v4.957H13.985v-7.334c0-1.398.972-2.578 2.12-2.578Zm31.15 9.625c2.305 0 4.18 1.853 4.18 4.131a4.108 4.108 0 0 1-2.163 3.608 4.251 4.251 0 0 1-4.043 0 4.114 4.114 0 0 1-2.154-3.608c0-2.278 1.874-4.131 4.18-4.131Zm-33.27 21.5v-19.23h20.846v16.851c0 .549.444.992.993.992h10.378v-1.983h-8.291a9.018 9.018 0 0 1 6.522-8.488c1.755.82 3.85.828 5.633-.001a9.104 9.104 0 0 1 5.226 4.005l1.699-1.027a11.112 11.112 0 0 0-5.147-4.432 6.052 6.052 0 0 0 1.577-4.056c0-3.37-2.767-6.114-6.166-6.114-3.4 0-6.166 2.743-6.166 6.114 0 1.518.578 2.944 1.564 4.045a10.99 10.99 0 0 0-5.836 5.789V21.93h20.847v15.86h1.985v-9.912h2.978l.001 14.869h1.986l-.001-24.186c0-2.515-1.842-4.561-4.106-4.561H16.106C13.84 14 12 16.046 12 18.56v28.548c0 2.515 1.841 4.56 4.106 4.56h26.668v-1.982H16.106c-1.149 0-2.12-1.18-2.12-2.578Z"/></g></svg>
